src/assets/duotone/DocumentUpload.svg

<svg width="24" height="24" viewBox="0 0 24 24"  xmlns="http://www.w3.org/2000/svg">
<path opacity="0.4" d="M20.5 10.19H17.61C15.24 10.19 13.31 8.26 13.31 5.89V3C13.31 2.45 12.86 2 12.31 2H8.07C4.99 2 2.5 4 2.5 7.57V16.43C2.5 20 4.99 22 8.07 22H15.93C19.01 22 21.5 20 21.5 16.43V11.19C21.5 10.64 21.05 10.19 20.5 10.19Z" />
<path d="M15.8002 2.21048C15.3902 1.80048 14.6802 2.08048 14.6802 2.65048V6.14048C14.6802 7.60048 15.9202 8.81048 17.4302 8.81048C18.3802 8.82048 19.7002 8.82048 20.8302 8.82048C21.4002 8.82048 21.7002 8.15048 21.3002 7.75048C19.8602 6.30048 17.2802 3.69048 15.8002 2.21048Z" />
<path d="M11.5299 12.47L9.52994 10.47C9.51994 10.46 9.50994 10.46 9.50994 10.45C9.44994 10.39 9.36994 10.34 9.28994 10.3C9.27994 10.3 9.27994 10.3 9.26994 10.3C9.18994 10.27 9.10994 10.26 9.02994 10.25C8.99994 10.25 8.97994 10.25 8.94994 10.25C8.88994 10.25 8.81994 10.27 8.75994 10.29C8.72994 10.3 8.70994 10.31 8.68994 10.32C8.60994 10.36 8.52994 10.4 8.46994 10.47L6.46994 12.47C6.17994 12.76 6.17994 13.24 6.46994 13.53C6.75994 13.82 7.23994 13.82 7.52994 13.53L8.24994 12.81V17C8.24994 17.41 8.58994 17.75 8.99994 17.75C9.40994 17.75 9.74994 17.41 9.74994 17V12.81L10.4699 13.53C10.6199 13.68 10.8099 13.75 10.9999 13.75C11.1899 13.75 11.3799 13.68 11.5299 13.53C11.8199 13.24 11.8199 12.76 11.5299 12.47Z" />
</svg>

<?xml version="1.0" encoding="UTF-8"?>
<svg width="24" height="24" viewBox="0 0 24 24" xmlns="http://www.w3.org/2000/svg">
 <path d="m20.5 10.19h-2.89c-2.37 0-4.3-1.93-4.3-4.3v-2.89c0-0.55-0.45-1-1-1h-4.24c-3.08 0-5.57 2-5.57 5.57v8.86c0 3.57 2.49 5.57 5.57 5.57h7.86c3.08 0 5.57-2 5.57-5.57v-5.24c0-0.55-0.45-1-1-1z" opacity=".4"/>
 <path d="m15.8 2.2105c-0.41-0.41-1.12-0.13-1.12 0.44v3.49c0 1.46 1.24 2.67 2.75 2.67 0.95 0.01 2.27 0.01 3.4 0.01 0.57 0 0.87-0.67 0.47-1.07-1.44-1.45-4.02-4.06-5.5-5.54z"/>
 <path d="m11.53 12.47-2-2c-0.01-0.01-0.02-0.01-0.02-0.02-0.06-0.06-0.14-0.11-0.22-0.15h-0.02c-0.08-0.03-0.16-0.04-0.24-0.05h-0.08c-0.06 0-0.13 0.02-0.19 0.04-0.03 0.01-0.05 0.02-0.07 0.03-0.08 0.04-0.16 0.08-0.22 0.15l-2 2c-0.29 0.29-0.29 0.77 0 1.06s0.77 0.29 1.06 0l0.72-0.72v4.19c0 0.41 0.34 0.75 0.75 0.75s0.75-0.34 0.75-0.75v-4.19l0.71996 0.72c0.15 0.15 0.34 0.22 0.53 0.22s0.38-0.07 0.53-0.22c0.29-0.29 0.29-0.77 0-1.06z"/>
</svg>
